X: 10021
T: Diable Vert
R: reel
M: 4/4
K: Gmajor
DC|B,G,B,D GDGB|ed (3ddd dBGB|cBAF DFAF|GBAG FEDC|
B,G,B,D GDGB|ed (3ddd dBGB|cBAF DFAF|GBAF G2:|
A2|[B3E3] [BE] [B2E2]ef|gfeg fB~B2|eBBe BBef|g2BA BAGA|
BEBE B2ef|gfeg fB~B2|efge dBGB|cBAF G2:|

